X:4285
T:Miss Susan Cooper
O:england
C:Ronnie Cooper, Shetland
R:reel
D:Sean Keane: Jig It in Style
M:C|
K:D
ABc|:dfed BedB|BAFA DAFA|ABde fa^ga|g2fg egfe|
dfed B2dB|A2FA DAFA|ABde fagf|eAce d2dc:|
|:Bcde fB~B2|def^g a2gf|e2ce Aece|g2fg egfe|
dfed B2dB|BAFA DAFA|ABde fagf|1 eAce d2dc:|2 eAce dABc||


